X:1
T:The Ball o' Kerrimuir
M:6/8
L:1/8
K:G
 D| G2 G G2 B| D2- D D2 D| G2 D G2 B| d3- d z d| c2 c c2 A| B2 G G2 B|\
 A2 A A2 A| d3D-E F| G3 G2 B| D3 D2 D| G3 G2 B| d3- d z d| c2 c c2 A|\
 B3 G2 G| A2 A D2 D| G3- G2 z|
